modules/hawcons-filled/icons/icon-92-inbox-download.svg

<?xml version="1.0" encoding="UTF-8" standalone="no"?>
<svg width="32px" height="32px" viewBox="0 0 32 32" version="1.1" xmlns="http://www.w3.org/2000/svg" xmlns:xlink="http://www.w3.org/1999/xlink" xmlns:sketch="http://www.bohemiancoding.com/sketch/ns">
    <!-- Generator: Sketch 3.0.3 (7891) - http://www.bohemiancoding.com/sketch -->
    <title>icon 92 inbox download</title>
    <desc>Created with Sketch.</desc>
    <defs></defs>
    <g id="Page-1" stroke="none" stroke-width="1" fill="none" fill-rule="evenodd" sketch:type="MSPage">
        <g id="icon-92-inbox-download" sketch:type="MSArtboardGroup" fill="#929292">
            <path d="M16,16 L12.75,12.75 L12,13.5 L16.5,18 L21,13.5 L20.25,12.75 L17,16 L17,5 L16,5 L16,16 L16,16 L16,16 Z M21,18 L27.7750244,18 L27.7750244,18 L23.4000244,11 L18,11 L18,10 L24,10 L29,18 L29,19 L29,27 L4,27 L4,18 L9,10 L15,10 L15,11 L9.59997559,11 L5.22497559,18 L12,18 L12,20 C12,21.1045695 12.8958578,22 13.9973917,22 L19.0026083,22 C20.1057373,22 21,21.1122704 21,20 L21,18 L21,18 Z" id="inbox-download" sketch:type="MSShapeGroup"></path>
        </g>
    </g>
</svg>

<svg width="32" height="32" xmlns="http://www.w3.org/2000/svg"><path d="M16 16l-3.25-3.25-.75.75 4.5 4.5 4.5-4.5-.75-.75L17 16V5h-1v11zm5 2h6.775L23.4 11H18v-1h6l5 8v9H4v-9l5-8h6v1H9.6l-4.375 7H12v2a2 2 0 0 0 1.997 2h5.006A1.994 1.994 0 0 0 21 20v-2z" fill="#929292" fill-rule="evenodd"/></svg>
